assets/images/icons/ico-quality.svg

<svg width="47" height="62" viewBox="0 0 47 62" fill="none" xmlns="http://www.w3.org/2000/svg">
<path d="M21.9123 3.7051C22.3346 3.29291 22.8583 2.89371 23.4918 2.97048C24.1181 2.94096 24.5595 3.42047 24.9913 3.79014C26.4181 4.86726 28.4079 5.14835 30.0924 4.55428C30.5779 4.3098 31.1708 4.35114 31.6289 4.63813C32.2075 4.93104 32.3435 5.60424 32.6668 6.10737C33.3873 7.20575 34.5301 8.02304 35.7923 8.39271C36.5593 8.61003 37.4648 8.42814 38.109 8.97143C38.5575 9.32693 38.7007 9.90919 38.7174 10.4537C38.8176 12.1178 39.8399 13.6378 41.2202 14.5519C41.7308 14.8555 42.3714 15.009 42.6982 15.5476C43.0728 16.1723 42.8736 16.9353 42.5968 17.5577C42.1042 19.3057 42.6446 21.3099 43.9437 22.5914C44.4936 23.1902 44.5199 24.1787 43.9819 24.7917C42.8462 25.6751 42.394 27.1562 42.3499 28.5356C42.3857 29.184 42.4943 29.8407 42.7448 30.4454C42.9631 30.9863 42.8116 31.6135 42.474 32.0729C42.1614 32.4437 41.6699 32.5689 41.256 32.791C40.0642 33.4925 39.2005 34.6807 38.808 35.9869C38.5957 36.7652 38.8057 37.7065 38.1674 38.3254C37.5602 38.9892 36.5844 38.7884 35.7947 39.0116C34.5206 39.36 33.3921 40.1903 32.6489 41.2698C32.3375 41.7139 32.2218 42.2926 31.7828 42.6481C31.3342 42.9575 30.7401 43.1193 30.2105 42.9256C28.4545 42.2359 26.3429 42.5619 24.8553 43.7016C24.4199 44.1173 23.8843 44.5212 23.2401 44.4409C22.4492 44.461 22.0066 43.7287 21.3946 43.3673C20.0084 42.4886 18.1879 42.2831 16.6502 42.8819C16.1802 43.0874 15.6136 43.0685 15.171 42.8051C14.5936 42.5205 14.4123 41.8615 14.1164 41.3454C13.4066 40.2411 12.2805 39.4167 11.0219 39.0293C10.5674 38.9455 10.1117 38.8604 9.65002 38.8297C8.92471 38.8025 8.23638 38.2439 8.12066 37.5258C8.00017 36.7995 7.98586 36.0318 7.64825 35.361C7.16869 34.3015 6.38373 33.352 5.35899 32.7721C4.8329 32.5028 4.18274 32.2701 3.97756 31.6607C3.70556 31.1292 3.90121 30.534 4.10162 30.0179C4.60624 28.5947 4.29846 26.979 3.53259 25.7058C3.23673 25.1991 2.72019 24.8295 2.55198 24.2508C2.31817 23.6614 2.49591 22.941 2.95759 22.5087C3.3095 22.1733 3.57315 21.7646 3.82367 21.3524C4.39628 20.2056 4.53108 18.8699 4.24358 17.625C4.14338 17.1632 3.80458 16.751 3.88212 16.2585C3.98113 15.6326 4.43326 15.0858 5.02854 14.8507C6.48632 14.2319 7.52061 12.8701 7.96319 11.3891C8.16242 10.8658 8.0634 10.2954 8.17315 9.75683C8.4022 9.17575 8.90801 8.6679 9.55697 8.59703C10.0914 8.55334 10.6211 8.46594 11.1472 8.35964C12.6026 7.84706 13.9244 6.79947 14.5232 5.36212C14.8656 4.58735 15.8915 4.16925 16.6741 4.5342C18.4063 5.16725 20.4617 4.83065 21.9123 3.7051ZM21.1954 8.44468C20.2339 8.65018 19.2544 8.80963 18.3335 9.16512C14.1057 10.5765 10.596 13.9141 8.95811 18.0171C8.10515 20.071 7.7759 22.3138 7.89281 24.5271C7.8093 25.4472 8.03 26.3436 8.22326 27.2353C9.38638 32.3339 13.3923 36.6908 18.4182 38.2994C19.2485 38.6124 20.1301 38.7494 20.9926 38.9478C22.5148 39.1108 24.0525 39.1061 25.5771 38.9667C26.9239 38.7045 28.2731 38.3963 29.5245 37.8258C33.8144 36.007 37.1677 32.1709 38.3643 27.7053C38.5838 26.8054 38.8271 25.9031 38.8307 24.9712C39.0013 24.6535 38.9667 24.2815 38.987 23.9342C38.9202 22.2784 38.7281 20.6119 38.2056 19.0317C36.8552 14.7421 33.478 11.1398 29.274 9.45448C28.0739 8.95135 26.7998 8.65845 25.521 8.43051C24.0823 8.33012 22.6329 8.31949 21.1954 8.44468Z" fill="white"/>
<path d="M20.574 11.9381C22.3366 11.7671 24.1595 11.7266 25.8711 12.234C29.5941 13.1803 32.791 15.9121 34.3264 19.3956C35.2083 21.3466 35.564 23.5203 35.3492 25.6469C35.2072 26.43 35.1503 27.2333 34.8889 27.9905C33.9127 31.519 31.2852 34.5501 27.9303 36.0781C25.8722 37.0378 23.5504 37.4305 21.2854 37.2055C17.4168 36.8882 13.7881 34.657 11.7049 31.4245C10.6867 29.8841 10.0468 28.1177 9.77181 26.3017C9.7184 25.5985 9.71953 24.8919 9.70703 24.1864C9.7684 21.7527 10.5639 19.3404 11.9652 17.3377C13.4312 15.2292 15.5439 13.555 17.9692 12.6571C18.8022 12.3083 19.6909 12.1182 20.574 11.9381Z" fill="#48FDBC"/>
<path d="M11.3402 41.418C11.9188 41.7357 12.3471 42.2719 12.6012 42.8707C13.2346 44.2584 14.7903 45.1631 16.3244 45.0155C17.1117 44.993 17.8001 44.4852 18.5993 44.5608C19.3712 44.6387 20.1943 44.8478 20.7395 45.4312C21.151 45.8706 21.6938 46.1327 22.2557 46.3288C21.6795 48.137 21.2047 49.9735 20.6488 51.7876C20.0965 53.8096 19.4571 55.808 18.9262 57.8358C17.5603 56.1268 16.1836 54.4273 14.7986 52.7348C14.56 52.3817 14.0876 52.3049 13.6987 52.4124C11.4572 53.1163 9.20964 53.7943 6.96094 54.4757C8.24455 50.7046 9.49953 46.9252 10.7808 43.1541C10.9502 42.5695 11.2019 42.0109 11.3402 41.418Z" fill="white"/>
<path d="M33.1169 44.2099C33.7265 43.7328 34.0641 43.0241 34.3564 42.332C35.2523 44.1107 36.2186 45.8563 37.136 47.6267C37.9734 49.1526 38.7429 50.7164 39.597 52.234C38.249 52.0391 36.8831 52.058 35.5326 51.8915C34.7775 51.823 34.0224 51.7297 33.2637 51.7202C32.8759 51.7226 32.567 52.0202 32.3856 52.3332C31.1509 54.2052 29.9914 56.1291 28.7209 57.9763C27.0496 55.0284 25.3711 52.084 23.701 49.1349C23.5173 48.8491 23.7559 48.5255 23.8215 48.2373C23.9825 47.6043 24.1615 46.9748 24.3762 46.3571C24.7114 46.2012 25.08 46.109 25.3854 45.8929C25.8853 45.5858 26.2467 45.0756 26.8134 44.8737C27.5828 44.5501 28.4835 44.4284 29.272 44.7556C30.5282 45.2599 32.0731 45.0957 33.1169 44.2099Z" fill="white"/>
<path d="M20.8437 1.94231C22.0808 0.778972 24.1351 0.651418 25.5368 1.59626C25.9484 1.84665 26.2323 2.26592 26.6773 2.46788C27.4873 2.83401 28.45 3.0218 29.2994 2.67339C30.5901 2.14191 32.1756 2.37576 33.2146 3.31352C33.7312 3.72571 34.0556 4.31033 34.3324 4.89613C34.645 5.48076 35.1913 5.91066 35.7663 6.22955C36.6634 6.69488 37.7562 6.42796 38.6437 6.91928C39.6398 7.40352 40.395 8.33891 40.6526 9.40659C40.7326 9.84358 40.7242 10.29 40.8041 10.7258C41.0785 11.7711 41.8361 12.7242 42.8739 13.1057C43.8891 13.5568 44.6323 14.5111 44.8852 15.5752C44.9699 16.1103 44.9759 16.6618 44.8805 17.1968C44.7647 17.7153 44.4236 18.1795 44.5071 18.7346C44.4176 19.6227 44.7588 20.5191 45.3827 21.1569C46.3943 22.2081 46.7546 23.9194 46.0269 25.2186C45.8265 25.7288 45.4459 26.1339 45.0785 26.5307C44.4057 27.3787 44.2339 28.5869 44.6132 29.5956C44.8793 30.3479 44.9508 31.1735 44.7528 31.9506C44.5023 33.0395 43.678 33.9584 42.6461 34.3907C41.8277 34.6753 41.2563 35.4016 40.9103 36.1611C40.6562 36.7433 40.7552 37.3929 40.5858 37.9952C40.3484 39.2035 39.3929 40.1908 38.2608 40.6467C37.5235 40.89 36.7278 40.8298 35.987 41.0613C37.9017 44.7414 39.8653 48.3968 41.7943 52.0687C41.9816 52.4407 42.2285 52.7915 42.3264 53.2013C42.4516 53.7305 42.0436 54.3151 41.4973 54.3741C40.2983 54.38 39.1149 54.1627 37.922 54.0919C36.5668 54.0765 35.2271 53.8545 33.8779 53.7635C32.5764 55.8316 31.2295 57.8701 29.9245 59.9357C29.7503 60.2286 29.5439 60.5026 29.3483 60.7825C28.8592 61.0813 28.1243 61.0412 27.8153 60.5109C26.1285 57.5783 24.4977 54.6115 22.7811 51.6955C22.3433 53.5143 21.7408 55.2906 21.2601 57.0976C21.0143 57.8393 20.8533 58.6047 20.5932 59.3428C20.4775 59.8436 20.3642 60.3538 20.0576 60.7814C19.5947 61.014 18.9827 61.0825 18.6022 60.6656C17.717 59.572 16.8319 58.4783 15.9515 57.3823C15.1999 56.4315 14.4078 55.5103 13.6753 54.5442C11.4624 55.2363 9.23875 55.8941 7.02464 56.5815C6.3554 56.7173 5.72075 57.1354 5.01453 56.9819C4.80099 56.8851 4.63994 56.7091 4.461 56.5626C4.38823 56.2402 4.32739 55.906 4.43833 55.5847C6.09176 50.6751 7.74757 45.7642 9.3998 40.8534C8.51941 40.7873 7.72729 40.3656 7.08429 39.7869C6.71567 39.3511 6.38045 38.8763 6.19077 38.3354C5.9999 37.5582 6.07625 36.7162 5.69451 35.9886C5.33185 35.326 4.81173 34.7013 4.09118 34.4084C3.30384 34.0635 2.59642 33.4919 2.21945 32.7124C1.78402 32.0108 1.76852 31.1498 1.86157 30.3562C1.91406 29.8022 2.28268 29.3322 2.30296 28.77C2.33397 28.0177 2.1097 27.2535 1.69694 26.624C1.29134 26.1398 0.797456 25.6851 0.623286 25.0568C0.334593 24.0954 0.294033 22.9946 0.78672 22.09C1.07422 21.34 1.86515 20.9207 2.11686 20.1518C2.24689 19.6853 2.39839 19.2082 2.35903 18.718C2.30892 17.9468 1.81623 17.2689 1.84606 16.4858C1.82578 15.045 2.736 13.6548 4.06017 13.0608C5.25908 12.612 6.05836 11.3601 6.07983 10.1081C6.09414 8.28695 7.69031 6.64646 9.53103 6.56969C10.6691 6.56497 11.7785 5.97444 12.3989 5.03078C12.6458 4.6741 12.7532 4.24065 13.0264 3.9005C13.8256 2.77023 15.3085 2.21277 16.672 2.44072C17.2947 2.50922 17.8447 2.88834 18.4841 2.86354C19.3406 2.81984 20.227 2.55882 20.8437 1.94231ZM21.9126 3.70563C20.462 4.83118 18.4066 5.16778 16.6744 4.53473C15.8918 4.16978 14.8659 4.58788 14.5235 5.36265C13.9247 6.8 12.6029 7.84759 11.1475 8.36017C10.6214 8.46647 10.0917 8.55387 9.55727 8.59756C8.90831 8.66843 8.4025 9.17628 8.17345 9.75736C8.0637 10.2959 8.16271 10.8664 7.96349 11.3896C7.52091 12.8706 6.48662 14.2324 5.02884 14.8513C4.43356 15.0863 3.98143 15.6331 3.88242 16.2591C3.80488 16.7516 4.14368 17.1638 4.24388 17.6256C4.53138 18.8704 4.39658 20.2062 3.82396 21.353C3.57345 21.7652 3.3098 22.1738 2.95788 22.5092C2.49621 22.9415 2.31847 23.6619 2.55228 24.2513C2.72049 24.83 3.23703 25.1997 3.53289 25.7063C4.29876 26.9795 4.60654 28.5952 4.10192 30.0184C3.90151 30.5345 3.70586 31.1298 3.97785 31.6612C4.18304 32.2707 4.8332 32.5033 5.35929 32.7726C6.38403 33.3525 7.16899 34.3021 7.64855 35.3615C7.98616 36.0323 8.00047 36.8 8.12096 37.5264C8.23668 38.2444 8.92501 38.8031 9.65032 38.8302C10.112 38.861 10.5677 38.946 11.0222 39.0298C12.2808 39.4172 13.4069 40.2416 14.1167 41.3459C14.4126 41.862 14.5939 42.521 15.1713 42.8057C15.6139 43.0691 16.1805 43.088 16.6505 42.8825C18.1882 42.2837 20.0087 42.4892 21.3949 43.3679C22.0069 43.7293 22.4495 44.4615 23.2404 44.4414C23.8846 44.5218 24.4202 44.1178 24.8556 43.7021C26.3432 42.5624 28.4548 42.2364 30.2108 42.9261C30.7404 43.1198 31.3345 42.958 31.7831 42.6486C32.2221 42.2931 32.3378 41.7144 32.6492 41.2703C33.3924 40.1908 34.5209 39.3605 35.795 39.0121C36.5847 38.7889 37.5605 38.9897 38.1677 38.3259C38.806 37.7071 38.596 36.7658 38.8083 35.9874C39.2008 34.6812 40.0645 33.493 41.2563 32.7915C41.6702 32.5695 42.1617 32.4443 42.4743 32.0734C42.8119 31.614 42.9634 30.9869 42.7451 30.4459C42.4946 29.8412 42.386 29.1846 42.3502 28.5362C42.3943 27.1567 42.8465 25.6756 43.9822 24.7922C44.5202 24.1792 44.4939 23.1907 43.944 22.5919C42.6449 21.3105 42.1045 19.3062 42.5971 17.5582C42.8739 16.9358 43.0731 16.1729 42.6986 15.5481C42.3717 15.0095 41.7311 14.856 41.2205 14.5525C39.8402 13.6383 38.8179 12.1183 38.7177 10.4542C38.701 9.90972 38.5578 9.32746 38.1093 8.97196C37.4651 8.42867 36.5596 8.61056 35.7926 8.39324C34.5304 8.02357 33.3876 7.20628 32.6671 6.1079C32.3438 5.60477 32.2078 4.93157 31.6292 4.63866C31.1711 4.35167 30.5782 4.31033 30.0927 4.55481C28.4082 5.14888 26.4184 4.86779 24.9916 3.79067C24.5598 3.421 24.1184 2.94149 23.4921 2.97101C22.8586 2.89424 22.3349 3.29344 21.9126 3.70563ZM11.3419 41.4179C11.2035 42.0108 10.9518 42.5695 10.7824 43.1541C9.5012 46.9252 8.24622 50.7046 6.96261 54.4757C9.21132 53.7942 11.4588 53.1163 13.7004 52.4124C14.0893 52.3049 14.5617 52.3817 14.8003 52.7348C16.1853 54.4273 17.5619 56.1268 18.9279 57.8358C19.4587 55.8079 20.0982 53.8096 20.6505 51.7876C21.2064 49.9735 21.6812 48.137 22.2574 46.3288C21.6955 46.1327 21.1527 45.8705 20.7412 45.4312C20.196 44.8477 19.3728 44.6387 18.601 44.5607C17.8017 44.4851 17.1134 44.993 16.3261 45.0154C14.7919 45.1631 13.2363 44.2584 12.6029 42.8706C12.3488 42.2718 11.9205 41.7356 11.3419 41.4179ZM33.1156 44.2111C32.0718 45.0969 30.5269 45.2611 29.2707 44.7568C28.4822 44.4296 27.5815 44.5513 26.8121 44.8749C26.2454 45.0769 25.884 45.5871 25.3841 45.8941C25.0787 46.1103 24.7101 46.2024 24.3749 46.3583C24.1601 46.976 23.9812 47.6055 23.8202 48.2385C23.7545 48.5267 23.516 48.8503 23.6997 49.1361C25.3698 52.0852 27.0483 55.0296 28.7196 57.9775C29.9901 56.1304 31.1496 54.2064 32.3843 52.3344C32.5657 52.0215 32.8746 51.7238 33.2623 51.7215C34.021 51.7309 34.7762 51.8242 35.5313 51.8927C36.8817 52.0593 38.2477 52.0404 39.5957 52.2352C38.7415 50.7176 37.9721 49.1539 37.1346 47.6279C36.2173 45.8575 35.251 44.1119 34.3551 42.3333C34.0628 43.0254 33.7252 43.734 33.1156 44.2111Z" fill="black"/>
<path d="M21.1965 8.4452C22.634 8.32001 24.0834 8.33064 25.5221 8.43103C26.8009 8.65897 28.075 8.95187 29.2751 9.455C33.479 11.1404 36.8563 14.7426 38.2067 19.0322C38.7292 20.6124 38.9213 22.2789 38.9881 23.9348C38.9678 24.282 39.0024 24.654 38.8318 24.9717C38.8282 25.9036 38.5849 26.8059 38.3654 27.7059C37.1688 32.1714 33.8155 36.0075 29.5256 37.8263C28.2742 38.3968 26.925 38.705 25.5782 38.9672C24.0536 39.1066 22.5159 39.1113 20.9937 38.9483C20.1312 38.7499 19.2496 38.6129 18.4193 38.2999C13.3934 36.6913 9.38747 32.3344 8.22434 27.2358C8.03109 26.3441 7.81039 25.4477 7.8939 24.5276C7.77699 22.3143 8.10624 20.0715 8.9592 18.0177C10.5971 13.9147 14.1068 10.577 18.3346 9.16565C19.2555 8.81015 20.2349 8.6507 21.1965 8.4452ZM21.3122 10.4849C20.3853 10.6739 19.4524 10.8735 18.5779 11.2396C16.0322 12.1821 13.8145 13.9395 12.2756 16.1528C10.8047 18.2551 9.96963 20.7872 9.90521 23.3419C9.91833 24.0824 9.91714 24.8241 9.9732 25.5622C10.2619 27.4685 10.9335 29.3227 12.0024 30.9396C14.1891 34.3328 17.9982 36.6748 22.059 37.0079C24.4365 37.2441 26.8737 36.8319 29.0341 35.8244C32.5557 34.2206 35.3138 31.0388 36.3385 27.335C36.6129 26.5402 36.6726 25.6969 36.8217 24.8749C37.0472 22.6427 36.6738 20.3609 35.748 18.3129C34.1364 14.6564 30.7806 11.7888 26.8725 10.7955C25.0759 10.2628 23.1624 10.3054 21.3122 10.4849Z" fill="black"/>
<path d="M29.3417 17.8227C29.6388 17.4365 30.2126 17.2924 30.6492 17.5286C30.9999 17.6538 31.1586 18.0389 31.2015 18.379C31.1991 18.803 30.9104 19.1455 30.6396 19.4443C29.5588 20.734 28.4828 22.0273 27.3984 23.3134C26.8735 23.9311 26.3856 24.5819 25.8034 25.15C24.4113 26.807 23.0274 28.4711 21.6341 30.1258C21.3275 30.4494 21.0841 30.8899 20.626 31.021C20.1978 31.1592 19.8089 30.8557 19.5238 30.5758C18.876 29.9144 18.202 29.2766 17.5506 28.6199C17.0436 28.1345 16.5509 27.6349 16.0451 27.1483C15.8173 26.9121 15.5441 26.6523 15.5656 26.2956C15.5178 25.7393 16.038 25.274 16.5664 25.2161C17.0102 25.2197 17.3407 25.5563 17.6341 25.8456C18.5312 26.7456 19.4546 27.6231 20.3421 28.5337C20.9577 27.7164 21.6555 26.9653 22.2938 26.1669C22.7137 25.6756 23.1133 25.1665 23.5738 24.713C25.4968 22.4158 27.427 20.1258 29.3417 17.8227Z" fill="black"/>
</svg>

<svg xmlns="http://www.w3.org/2000/svg" width="47" height="62" fill="none"><path fill="#fff" d="M21.912 3.705c.423-.412.946-.811 1.58-.735.626-.029 1.067.45 1.5.82 1.426 1.077 3.416 1.358 5.1.764a1.58 1.58 0 0 1 1.537.084c.579.293.714.966 1.038 1.47.72 1.098 1.863 1.915 3.125 2.285.767.217 1.673.035 2.317.578.448.356.592.938.608 1.483.1 1.664 1.123 3.184 2.503 4.098.51.303 1.151.457 1.478.996.375.624.176 1.387-.101 2.01-.493 1.748.048 3.752 1.347 5.033.55.6.576 1.588.038 2.2-1.136.884-1.588 2.365-1.632 3.745.036.648.144 1.305.395 1.91.218.54.067 1.167-.271 1.627-.313.37-.804.496-1.218.718-1.192.702-2.056 1.89-2.448 3.196-.212.778-.002 1.72-.64 2.338-.608.664-1.584.463-2.373.687-1.274.348-2.403 1.178-3.146 2.258-.312.444-.427 1.023-.866 1.378-.449.31-1.043.471-1.573.278-1.756-.69-3.867-.364-5.355.776-.435.415-.97.82-1.615.739-.79.02-1.233-.712-1.845-1.074-1.387-.878-3.207-1.084-4.745-.485a1.65 1.65 0 0 1-1.479-.077c-.577-.285-.759-.944-1.055-1.46-.71-1.104-1.835-1.928-3.094-2.316-.455-.084-.91-.169-1.372-.2-.725-.026-1.414-.585-1.53-1.303-.12-.727-.134-1.494-.472-2.165-.48-1.06-1.264-2.009-2.289-2.589-.526-.27-1.176-.502-1.381-1.111-.272-.532-.077-1.127.124-1.643.504-1.423.196-3.039-.57-4.312-.295-.507-.812-.876-.98-1.455-.234-.59-.056-1.31.406-1.742.351-.336.615-.744.866-1.157.572-1.146.707-2.482.42-3.727-.1-.462-.44-.874-.362-1.366A1.86 1.86 0 0 1 5.03 14.85c1.457-.62 2.492-1.98 2.934-3.462.2-.523.1-1.094.21-1.632.23-.581.735-1.09 1.384-1.16a14 14 0 0 0 1.59-.237c1.456-.513 2.777-1.56 3.376-2.998.343-.775 1.369-1.193 2.151-.828 1.732.633 3.788.297 5.238-.829m-.717 4.74c-.961.205-1.94.365-2.861.72-4.228 1.412-7.738 4.75-9.376 8.852-.853 2.054-1.182 4.297-1.065 6.51-.084.92.137 1.817.33 2.708 1.163 5.099 5.17 9.456 10.195 11.064.83.313 1.712.45 2.575.649 1.522.163 3.06.158 4.584.019 1.347-.262 2.696-.57 3.947-1.141 4.29-1.819 7.644-5.655 8.84-10.12.22-.9.463-1.803.467-2.735.17-.317.136-.69.156-1.037-.067-1.656-.259-3.322-.781-4.902-1.35-4.29-4.728-7.892-8.932-9.578-1.2-.503-2.474-.796-3.753-1.023a28 28 0 0 0-4.326.014"/><path fill="#48FDBC" d="M20.574 11.938c1.763-.17 3.585-.211 5.297.296 3.723.946 6.92 3.678 8.455 7.162a12.25 12.25 0 0 1 1.023 6.25c-.142.784-.199 1.587-.46 2.345-.976 3.528-3.604 6.56-6.959 8.087a12.8 12.8 0 0 1-6.645 1.127c-3.868-.317-7.497-2.548-9.58-5.78-1.018-1.54-1.658-3.307-1.933-5.123-.054-.703-.052-1.41-.065-2.116a12.6 12.6 0 0 1 2.258-6.848c1.466-2.109 3.579-3.783 6.004-4.68.833-.35 1.722-.54 2.605-.72"/><path fill="#fff" d="M11.34 41.418c.579.318 1.007.854 1.261 1.453.634 1.387 2.19 2.292 3.723 2.145.788-.023 1.476-.53 2.275-.455.772.078 1.595.287 2.14.87.412.44.955.702 1.517.898-.576 1.808-1.051 3.645-1.607 5.459-.553 2.022-1.192 4.02-1.723 6.048a569 569 0 0 0-4.127-5.101c-.239-.353-.711-.43-1.1-.323-2.242.704-4.49 1.382-6.738 2.064 1.284-3.771 2.539-7.55 3.82-11.322.17-.585.42-1.143.56-1.736M33.117 44.21c.61-.477.947-1.186 1.24-1.878.895 1.779 1.862 3.524 2.779 5.295.837 1.526 1.607 3.09 2.461 4.607-1.348-.195-2.714-.176-4.064-.343-.755-.068-1.51-.161-2.27-.17-.387.002-.696.3-.877.612-1.235 1.872-2.395 3.796-3.665 5.643-1.671-2.948-3.35-5.892-5.02-8.841-.184-.286.055-.61.12-.898.162-.633.34-1.262.555-1.88.335-.156.704-.248 1.01-.464.5-.307.86-.817 1.427-1.02.77-.323 1.67-.445 2.459-.117 1.256.504 2.801.34 3.845-.546"/><path fill="#000" d="M20.844 1.942C22.08.78 24.135.652 25.537 1.596c.411.25.695.67 1.14.872.81.366 1.773.554 2.622.205 1.291-.531 2.877-.297 3.916.64.516.413.84.997 1.117 1.583.313.585.86 1.015 1.434 1.334.897.465 1.99.198 2.878.69a3.8 3.8 0 0 1 2.009 2.487c.08.437.071.883.151 1.319.274 1.045 1.032 1.998 2.07 2.38 1.015.45 1.758 1.405 2.011 2.47a4.9 4.9 0 0 1-.005 1.62c-.115.52-.456.983-.373 1.539-.09.888.252 1.784.876 2.422 1.011 1.051 1.372 2.762.644 4.062-.2.51-.581.915-.949 1.312-.672.848-.844 2.056-.465 3.065.266.752.338 1.578.14 2.355-.25 1.088-1.075 2.007-2.107 2.44-.818.284-1.39 1.01-1.736 1.77-.254.582-.155 1.232-.324 1.834-.238 1.209-1.193 2.196-2.325 2.652-.738.243-1.533.183-2.274.414 1.915 3.68 3.878 7.336 5.807 11.008.188.372.434.722.532 1.132.126.53-.282 1.114-.829 1.173-1.199.006-2.382-.211-3.575-.282-1.355-.015-2.695-.237-4.044-.328-1.302 2.068-2.648 4.106-3.954 6.172-.174.293-.38.567-.576.846-.489.3-1.224.26-1.533-.271-1.687-2.933-3.317-5.9-5.034-8.815-.438 1.818-1.04 3.595-1.52 5.402-.247.741-.408 1.507-.668 2.245-.116.5-.229 1.01-.535 1.438-.463.233-1.075.302-1.456-.115q-1.329-1.64-2.65-3.284c-.752-.95-1.544-1.872-2.277-2.838-2.213.692-4.436 1.35-6.65 2.038-.67.135-1.304.553-2.01.4-.214-.097-.375-.273-.554-.42-.073-.322-.134-.656-.023-.977Q6.92 48.22 9.4 40.853c-.88-.066-1.673-.487-2.316-1.066-.368-.436-.704-.91-.893-1.452-.191-.777-.115-1.619-.496-2.346-.363-.663-.883-1.288-1.604-1.58-.787-.346-1.495-.917-1.872-1.697-.435-.701-.45-1.562-.357-2.356.052-.554.42-1.024.441-1.586a3.7 3.7 0 0 0-.606-2.146c-.406-.484-.9-.939-1.074-1.567-.288-.962-.329-2.062.164-2.967.287-.75 1.078-1.17 1.33-1.938.13-.467.281-.944.242-1.434-.05-.771-.543-1.45-.513-2.232-.02-1.441.89-2.831 2.214-3.425 1.2-.449 1.998-1.7 2.02-2.953.014-1.821 1.61-3.462 3.451-3.538 1.138-.005 2.247-.596 2.868-1.54.247-.356.354-.79.627-1.13.8-1.13 2.283-1.687 3.646-1.46.623.07 1.173.448 1.812.424.857-.044 1.743-.305 2.36-.922m1.069 1.764c-1.451 1.125-3.506 1.462-5.239.829-.782-.365-1.808.053-2.15.828-.6 1.437-1.921 2.485-3.376 2.997-.527.106-1.056.194-1.59.238-.65.07-1.155.578-1.385 1.16-.11.538-.01 1.108-.21 1.632-.442 1.48-1.476 2.842-2.934 3.461a1.86 1.86 0 0 0-1.147 1.408c-.077.493.262.905.362 1.367.287 1.244.153 2.58-.42 3.727-.25.412-.514.82-.866 1.156-.462.433-.64 1.153-.406 1.742.168.579.685.949.98 1.455.767 1.274 1.075 2.89.57 4.312-.2.517-.396 1.112-.124 1.643.205.61.855.842 1.381 1.112 1.025.58 1.81 1.53 2.29 2.588.337.671.351 1.439.472 2.165.116.718.804 1.277 1.53 1.304.461.031.917.116 1.371.2 1.259.387 2.385 1.212 3.095 2.316.296.516.477 1.175 1.054 1.46.443.263 1.01.282 1.48.077 1.537-.6 3.358-.394 4.744.485.612.361 1.055 1.093 1.845 1.073.645.08 1.18-.323 1.616-.739 1.487-1.14 3.599-1.466 5.355-.776.53.194 1.124.032 1.572-.277.44-.356.555-.935.866-1.379.743-1.08 1.872-1.91 3.146-2.258.79-.223 1.765-.022 2.373-.686.638-.619.428-1.56.64-2.339.393-1.306 1.257-2.494 2.448-3.196.414-.221.906-.347 1.218-.718.338-.459.49-1.086.271-1.627-.25-.605-.359-1.261-.395-1.91.044-1.38.496-2.86 1.632-3.744.538-.613.512-1.601-.038-2.2-1.3-1.281-1.84-3.286-1.347-5.034.277-.622.476-1.385.102-2.01-.327-.539-.968-.692-1.478-.995-1.38-.915-2.403-2.435-2.503-4.099-.017-.544-.16-1.127-.609-1.482-.644-.543-1.55-.361-2.316-.579-1.263-.37-2.405-1.187-3.126-2.285-.323-.503-.46-1.176-1.038-1.47a1.58 1.58 0 0 0-1.536-.083c-1.685.594-3.675.313-5.101-.764-.432-.37-.874-.85-1.5-.82-.633-.077-1.157.322-1.58.735M11.342 41.418c-.139.593-.39 1.151-.56 1.736-1.28 3.771-2.536 7.55-3.82 11.322 2.25-.682 4.497-1.36 6.738-2.064.39-.107.862-.03 1.1.323a571 571 0 0 1 4.128 5.1c.53-2.027 1.17-4.025 1.723-6.047.555-1.814 1.03-3.651 1.606-5.46-.562-.195-1.104-.458-1.516-.897-.545-.583-1.368-.792-2.14-.87-.8-.076-1.488.432-2.275.454-1.534.148-3.09-.757-3.723-2.144-.254-.6-.682-1.135-1.261-1.453m21.774 2.793c-1.044.886-2.59 1.05-3.845.546-.789-.327-1.69-.206-2.459.118-.567.202-.928.712-1.428 1.02-.305.215-.674.307-1.01.463a23 23 0 0 0-.554 1.88c-.066.289-.304.612-.12.898 1.67 2.95 3.348 5.894 5.02 8.841 1.27-1.847 2.43-3.77 3.664-5.643.182-.312.49-.61.878-.613.759.01 1.514.103 2.27.172 1.35.166 2.716.147 4.064.342-.854-1.517-1.624-3.081-2.461-4.607-.918-1.77-1.884-3.516-2.78-5.295-.292.692-.63 1.401-1.24 1.878"/><path fill="#000" d="M21.197 8.445a28 28 0 0 1 4.325-.014c1.279.228 2.553.52 3.753 1.024 4.204 1.685 7.581 5.288 8.932 9.577.522 1.58.714 3.247.781 4.903-.02.347.014.719-.156 1.037-.004.932-.247 1.834-.467 2.734-1.196 4.465-4.55 8.302-8.84 10.12-1.25.57-2.6.879-3.947 1.141-1.524.14-3.062.144-4.584-.019-.863-.198-1.744-.335-2.575-.648-5.026-1.609-9.032-5.966-10.195-11.064-.193-.892-.414-1.788-.33-2.708-.117-2.214.212-4.456 1.065-6.51 1.638-4.103 5.148-7.441 9.376-8.852.92-.356 1.9-.515 2.861-.72m.115 2.04c-.927.189-1.86.389-2.734.755-2.546.942-4.763 2.7-6.302 4.913a13.2 13.2 0 0 0-2.37 7.189c.012.74.011 1.482.067 2.22.289 1.906.96 3.76 2.03 5.378 2.186 3.393 5.995 5.735 10.056 6.068a13.45 13.45 0 0 0 6.975-1.184c3.522-1.603 6.28-4.785 7.305-8.489.274-.795.334-1.638.483-2.46a12.86 12.86 0 0 0-1.074-6.562c-1.612-3.657-4.967-6.524-8.875-7.517-1.797-.533-3.71-.49-5.56-.311"/><path fill="#000" d="M29.342 17.823c.297-.387.87-.53 1.307-.294.35.125.51.51.552.85-.002.424-.29.766-.561 1.065-1.081 1.29-2.157 2.583-3.242 3.87-.524.617-1.012 1.268-1.595 1.836-1.392 1.657-2.776 3.321-4.169 4.976-.306.323-.55.764-1.008.895-.428.138-.817-.165-1.102-.445-.648-.662-1.322-1.3-1.973-1.956-.507-.486-1-.985-1.506-1.472-.228-.236-.5-.496-.48-.852-.047-.557.473-1.022 1.001-1.08.444.004.775.34 1.068.63.897.9 1.82 1.777 2.708 2.688.616-.818 1.314-1.569 1.952-2.367.42-.491.82-1 1.28-1.454 1.923-2.297 3.853-4.587 5.768-6.89"/></svg>
